image/footer/logo-yellow.svg

<svg width="145" height="36" viewBox="0 0 145 36" fill="none" xmlns="http://www.w3.org/2000/svg">
<path d="M27.2187 0V35.3H19.6135V32.9C17.9123 34.8 15.5107 36 12.1083 36C5.50379 36 0 30.2 0 22.7C0 15.2 5.50379 9.4 12.1083 9.4C15.5107 9.4 18.0124 10.6 19.6135 12.5V0H27.2187ZM19.6135 22.7C19.6135 18.9 17.1118 16.5 13.6094 16.5C10.107 16.5 7.60523 18.9 7.60523 22.7C7.60523 26.5 10.107 28.9 13.6094 28.9C17.1118 28.8 19.6135 26.5 19.6135 22.7Z" fill="#FFC700"/>
<path d="M43.7302 29.1999C45.8316 29.1999 47.5328 28.3999 48.5335 27.2999L54.6377 30.7999C52.136 34.1999 48.4334 35.9999 43.6301 35.9999C35.0242 35.9999 29.6205 30.1999 29.6205 22.6999C29.6205 15.1999 35.0242 9.3999 43.0297 9.3999C50.4348 9.3999 55.8385 15.0999 55.8385 22.6999C55.8385 23.7999 55.7385 24.7999 55.5383 25.6999H37.626C38.6267 28.2999 40.9283 29.1999 43.7302 29.1999ZM48.3334 20.0999C47.5328 17.1999 45.2312 16.0999 42.9296 16.0999C40.0276 16.0999 38.1263 17.4999 37.4259 20.0999H48.3334Z" fill="#FFC700"/>
<path d="M82.1564 10.1001L72.85 35.3001H64.2441L54.9377 10.1001H63.3435L68.6471 26.1001L73.9508 10.1001C73.9508 10.1001 82.1564 10.1001 82.1564 10.1001Z" fill="#FFC700"/>
<path d="M83.4574 10.1001H91.0626V35.3001H83.4574V10.1001Z" fill="#FFC700"/>
<path d="M93.6646 22.6999C93.6646 15.1999 99.3685 9.3999 107.074 9.3999C111.977 9.3999 116.28 11.9999 118.482 15.8999L111.877 19.6999C110.976 17.8999 109.175 16.8999 106.974 16.8999C103.671 16.8999 101.27 19.2999 101.27 22.6999C101.27 26.1999 103.671 28.4999 106.974 28.4999C109.175 28.4999 111.077 27.3999 111.877 25.6999L118.482 29.4999C116.38 33.3999 112.077 35.9999 107.074 35.9999C99.3685 35.9999 93.6646 30.1999 93.6646 22.6999Z" fill="#FFC700"/>
<path d="M132.892 29.1999C134.993 29.1999 136.694 28.3999 137.695 27.2999L143.799 30.7999C141.297 34.1999 137.595 35.9999 132.792 35.9999C124.186 35.9999 118.782 30.1999 118.782 22.6999C118.782 15.1999 124.286 9.3999 132.191 9.3999C139.596 9.3999 145 15.0999 145 22.6999C145 23.7999 144.9 24.7999 144.7 25.6999H126.787C127.788 28.2999 130.09 29.1999 132.892 29.1999ZM137.595 20.0999C136.794 17.1999 134.493 16.0999 132.191 16.0999C129.289 16.0999 127.388 17.4999 126.687 20.0999H137.595Z" fill="#FFC700"/>
</svg>

<svg width="145" height="36" fill="none" xmlns="http://www.w3.org/2000/svg"><path d="M27.2 0v35.3h-7.6v-2.4a9.5 9.5 0 0 1-7.5 3.1C5.5 36 0 30.2 0 22.7 0 15.2 5.5 9.4 12.1 9.4c3.4 0 6 1.2 7.5 3.1V0h7.6Zm-7.6 22.7c0-3.8-2.5-6.2-6-6.2s-6 2.4-6 6.2c0 3.8 2.5 6.2 6 6.2 3.5-.1 6-2.4 6-6.2ZM43.7 29.2c2.1 0 3.8-.8 4.8-1.9l6.1 3.5a13 13 0 0 1-11 5.2c-8.6 0-14-5.8-14-13.3C29.6 15.2 35 9.4 43 9.4c7.4 0 12.8 5.7 12.8 13.3 0 1.1 0 2.1-.3 3H37.6c1 2.6 3.3 3.5 6.1 3.5Zm4.6-9.1c-.8-2.9-3-4-5.4-4-2.9 0-4.8 1.4-5.5 4h11ZM82.2 10.1l-9.4 25.2h-8.6L55 10.1h8.4l5.3 16 5.4-16h8.2ZM83.5 10.1H91v25.2h-7.6V10.1ZM93.7 22.7A13 13 0 0 1 107 9.4a13 13 0 0 1 11.4 6.5l-6.6 3.8c-1-1.8-2.7-2.8-5-2.8a5.5 5.5 0 0 0-5.6 5.8c0 3.5 2.4 5.8 5.7 5.8 2.2 0 4-1.1 4.9-2.8l6.6 3.8A12.8 12.8 0 0 1 107 36a13 13 0 0 1-13.4-13.3ZM132.9 29.2c2 0 3.8-.8 4.8-1.9l6.1 3.5a13 13 0 0 1-11 5.2c-8.6 0-14-5.8-14-13.3a13 13 0 0 1 13.4-13.3c7.4 0 12.8 5.7 12.8 13.3 0 1.1-.1 2.1-.3 3h-18c1 2.6 3.4 3.5 6.2 3.5Zm4.7-9.1c-.8-2.9-3.1-4-5.4-4-3 0-4.8 1.4-5.5 4h10.9Z" fill="#FFC700"/></svg>
